src/Pure-Dark/16/symbolic/places/playlist-queue-symbolic.svg

<?xml version="1.0" encoding="UTF-8" standalone="no"?>
<svg
   width="16"
   height="16"
   version="1.1"
   id="svg1"
   sodipodi:docname="playlist-queue-symbolic.svg"
   inkscape:version="1.4.2 (ebf0e940d0, 2025-05-08)"
   xmlns:inkscape="http://www.inkscape.org/namespaces/inkscape"
   xmlns:sodipodi="http://sodipodi.sourceforge.net/DTD/sodipodi-0.dtd"
   xmlns="http://www.w3.org/2000/svg"
   xmlns:svg="http://www.w3.org/2000/svg">
  <defs
     id="defs1">
     <style
        id="current-color-scheme"
        type="text/css">
        .ColorScheme-Text { color:#f2f2f2; }
        .ColorScheme-NeutralText { color:#f67400; }
        .ColorScheme-PositiveText { color:#37c837; }
        .ColorScheme-NegativeText { color:#f44336; }
        .ColorScheme-Highlight { color:#3daee9; }
     </style>
  </defs>
  <sodipodi:namedview
     id="namedview1"
     pagecolor="#ffffff"
     bordercolor="#000000"
     borderopacity="0.25"
     inkscape:showpageshadow="2"
     inkscape:pageopacity="0.0"
     inkscape:pagecheckerboard="0"
     inkscape:deskcolor="#d1d1d1"
     inkscape:zoom="49.6875"
     inkscape:cx="8"
     inkscape:cy="8"
     inkscape:window-width="1920"
     inkscape:window-height="1010"
     inkscape:window-x="0"
     inkscape:window-y="0"
     inkscape:window-maximized="1"
     inkscape:current-layer="svg1" />
  <path
     id="path1"
     style="fill:currentColor"
     class="ColorScheme-Text"
     d="M 5 2 L 5 14 L 16 14 L 16 2 L 5 2 z M 3 3 L 3 13 L 4 12.888672 L 4 3.109375 L 3 3 z M 10.408203 3.9179688 C 10.42682 3.9163318 10.446047 3.9167813 10.466797 3.9179688 C 10.609797 3.9169688 10.754078 3.9619375 10.830078 4.0859375 C 10.888078 4.4289375 11.007312 4.7683594 11.195312 5.0683594 C 11.383313 5.4583594 11.740625 5.7460313 12.015625 6.0820312 C 12.791625 7.0280312 12.744391 8.44325 12.025391 9.40625 C 11.958391 9.48025 11.897344 9.6355156 11.777344 9.6035156 C 11.733344 9.5815156 11.671219 9.52575 11.699219 9.46875 C 11.905219 8.99475 12.051922 8.4750781 12.044922 7.9550781 C 12.057922 7.2350781 11.500812 6.623875 10.882812 6.296875 L 10.882812 10.011719 C 10.882812 10.846719 10.451031 11.491969 9.7070312 11.667969 C 9.0500312 11.867969 8.251875 11.430813 8.171875 10.757812 C 8.114875 10.038813 8.7299219 9.4144688 9.4199219 9.2304688 C 9.6499219 9.1634687 9.9141875 9.1455 10.117188 9.1875 L 10.117188 4.4960938 C 10.084375 4.2710937 10.128949 3.9425232 10.408203 3.9179688 z M 1 4 L 1 12 L 2 11.699219 L 2 4.4003906 L 1 4 z " />
</svg>

<svg width="16" height="16" version="1.1" xmlns="http://www.w3.org/2000/svg">
 <path d="M5 2v12h11V2H5zM3 3v10l1-.111V3.11L3 3zm7.467.918c.143-.001.287.044.363.168.058.343.177.682.365.982.188.39.545.678.82 1.014.776.946.729 2.361.01 3.324-.067.074-.128.23-.248.198-.044-.022-.106-.078-.078-.135.206-.474.353-.994.346-1.514.013-.72-.544-1.331-1.162-1.658v3.715c0 .835-.432 1.48-1.176 1.656-.657.2-1.455-.237-1.535-.91-.057-.719.558-1.344 1.248-1.528.23-.067.494-.085.697-.043v-4.69c-.035-.24.018-.598.35-.579zM1 4v8l1-.3V4.4L1 4z" fill="#f2f2f2"/>
</svg>
